X: 1
T: Maidens
C: Andrew Rankine 1982
R: jig
Z: 2009 John Chambers <jc:trillian.mit.edu>
S: printed MS of unknown origin
M: 6/8
L: 1/8
K: D
|: "D"DFA dcB | d3 d2 c/B/ | "D"DFA dcB | "Em"G3 G2E/D/ | "A7"CEG cBA |
| c3 c2B |2"A7"A^GA BA=G | "D"F3 F2E :|2 "A7"A^GA cAe | "D"d3 d2=c |]
|: "G"BGB dBe | d3 d2c/B/ | "D"AFA dAf | d3 d2c/B/ | "A7"cAc ece |
| a3 gec |1dAd fdf| a3 a2=c :|2 "D"dAd "A7"edc | "D"d3 d3 |]

%%sep 1 1 500

